packages/sources/assets/src/assets/flag-an.svg

<svg width="28" height="20" viewBox="0 0 28 20" fill="none" xmlns="http://www.w3.org/2000/svg">
<rect x="0.25" y="0.25" width="27.5" height="19.5" rx="1.75" fill="white" stroke="#F5F5F5" stroke-width="0.5"/>
<mask id="mask0_503_4801" style="mask-type:alpha" maskUnits="userSpaceOnUse" x="0" y="0" width="28" height="20">
<rect x="0.25" y="0.25" width="27.5" height="19.5" rx="1.75" fill="white" stroke="white" stroke-width="0.5"/>
</mask>
<g mask="url(#mask0_503_4801)">
<rect x="10.6665" width="6.66667" height="20" fill="#D6182D"/>
<rect y="6.66666" width="28" height="6.66667" fill="#1425A2"/>
<path fill-rule="evenodd" clip-rule="evenodd" d="M11.3332 11.6667L10.8618 11.8048L10.9998 11.3334L10.8618 10.8619L11.3332 11L11.8046 10.8619L11.6665 11.3334L11.8046 11.8048L11.3332 11.6667Z" fill="white"/>
<path fill-rule="evenodd" clip-rule="evenodd" d="M16.6667 11.6667L16.1953 11.8047L16.3333 11.3333L16.1953 10.8619L16.6667 11L17.1381 10.8619L17 11.3333L17.1381 11.8047L16.6667 11.6667Z" fill="white"/>
<path fill-rule="evenodd" clip-rule="evenodd" d="M8.66667 10.3333L8.19526 10.4714L8.33333 10L8.19526 9.52861L8.66667 9.66668L9.13807 9.52861L9 10L9.13807 10.4714L8.66667 10.3333Z" fill="white"/>
<path fill-rule="evenodd" clip-rule="evenodd" d="M19.3332 10.3333L18.8618 10.4714L18.9998 9.99998L18.8618 9.52858L19.3332 9.66665L19.8046 9.52858L19.6665 9.99998L19.8046 10.4714L19.3332 10.3333Z" fill="white"/>
<path fill-rule="evenodd" clip-rule="evenodd" d="M14.0002 9L13.5288 9.13807L13.6668 8.66667L13.5288 8.19526L14.0002 8.33333L14.4716 8.19526L14.3335 8.66667L14.4716 9.13807L14.0002 9Z" fill="white"/>
</g>
</svg>

<svg width="28" height="20" fill="none" xmlns="http://www.w3.org/2000/svg"><rect x=".25" y=".25" width="27.5" height="19.5" rx="1.75" fill="#fff" stroke="#F5F5F5" stroke-width=".5"/><mask id="a" style="mask-type:alpha" maskUnits="userSpaceOnUse" x="0" y="0" width="28" height="20"><rect x=".25" y=".25" width="27.5" height="19.5" rx="1.75" fill="#fff" stroke="#fff" stroke-width=".5"/></mask><g mask="url(#a)"><path fill="#D6182D" d="M10.666 0h6.667v20h-6.667z"/><path fill="#1425A2" d="M0 6.667h28v6.667H0z"/><path fill-rule="evenodd" clip-rule="evenodd" d="m11.333 11.667-.471.138.138-.472-.138-.471.471.138.472-.138-.139.471.139.472-.472-.138Zm5.334 0-.472.138.138-.472-.138-.471.472.138.471-.138-.138.471.138.472-.471-.138Zm-8-1.334-.472.138.138-.471-.138-.471.472.138.471-.138L9 10l.138.471-.471-.138Zm10.666 0-.471.138L19 10l-.138-.471.471.138.472-.138-.139.471.139.471-.472-.138ZM14 9l-.471.138.138-.471-.138-.472.471.138.472-.138-.138.472.138.471L14 9Z" fill="#fff"/></g></svg>
